!!!OTL: Die dienende Schwester Es war ein Markgraf ueberm Rhein,
!!!ARE: Europa, Osteuropa, UdSSR, Rossiya
!!!YOR: 4, S. 120
!!    ????
!!!SCT: Q00753
!!!YEM: Copyright 1995, estate of Helmut Schaffrath.
**kern
*ICvox
*Ivox
*M3/4
*k[b-e-a-d-]
*f:
{8c
8f
8f
=1
4f
4a-
8g
8f
=2
4g
8r}
{8g
8a-
8b-
=3
4cc
4b-
8a-
8g
=4
4f
8r}
{8f
8cc
8cc
=5
4cc
8a-
8g
12a-
12g
12f
=6
4g
8r}
{8g
8a-
8b-
=7
4.cc
8b-
8a-
8g
=8
4f
8r}
==
!!!AGN: Ballade, Adelige als Dienstmagd, Tod; Kinder - Spiel, Tanz
!!!ONB: ESAC (Essen Associative Code) Database: BALLADE
!!!AMT: simple triple
!!!AIN: vox
!!!EED: Helmut Schaffrath
!!!EEV: 1.0
*-
